X: 58
T: No_157.krn
N: Derived from No_157.krn
%%abc-version 2.0
%%abcx-abcm2ps-target-version 5.9.1 (29 Sep 2008)
%%abc-creator hum2abc beta
%%abcx-conversion-date 2019/03/15 08:29:13
%%humdrum-veritas 2090158074
%%humdrum-veritas-data 2809952634
%%linebreak <none>
%%barnumbers 0
L: 1/8
M: 3/4
K: D clef=bass
B,2 [I:setbarnb 1]| 
D4D2 | 
B,4D/B,3/ ||  
[M:4/4]B,E, E,/D,3/-D,2G,/E,3/ | 
D,4B,,4 ||  
[M:3/4]B,,6 ||  
[M:4/4]D,4B,,2D,B,, | 
B,,3B,,B,,4 | 
B,,6z2 |]  



